X: 32
T:Highland Mary, Bledington
M:4/4
L:1/8
A:Bledington
P:AAB(CB)2
K:G
P:A
|:D2|G2AG F2D2|G2AB c2Bc|d2d2 AcBA|1G4 F2:|2G3F G2||
P:B
  z2|e2d2 c2B2|AcBA B2c2|e2e2 AcBA| G4  F2D2|
G2AG F2D2|G2AB c2Bc|d2d2 AcBA| G3F G2  ||
P:C
|:z2|D4 G4|A2G2 F4|D4 G4|A2B2 c2Bc|d2d2 AcBA|1G4 F2:|2G3F G2||

